X: 1
T: Flight of the Silverbird intro
C: Thomas Bergersen, Two Steps from Hell
M: 4/4
L: 1/4
K: C
E3 D1| E3 D1 |E G A B|A G E D |E3 D1| E3 D1 |E G A B|d3 B| A2 B d|
e3 d | e3 d | e g a b | a g e d | e3 d | B d A G | A B A G  G
